svg/fluentui-system-icons/ic_fluent_book_question_mark_20_regular.svg

<svg width="20" height="20" viewBox="0 0 20 20" fill="none" xmlns="http://www.w3.org/2000/svg">
<path d="M4 4V16C4 17.1046 4.89543 18 6 18H15.5C15.7761 18 16 17.7761 16 17.5C16 17.2239 15.7761 17 15.5 17H6C5.44772 17 5 16.5523 5 16H15C15.5523 16 16 15.5523 16 15V4C16 2.89543 15.1046 2 14 2H6C4.89543 2 4 2.89543 4 4ZM14 3C14.5523 3 15 3.44772 15 4V15H5V4C5 3.44772 5.44772 3 6 3H14ZM8.76069 6.40877C8.95015 6.21142 9.31074 6 10 6C10.6893 6 11.0499 6.21142 11.2393 6.40877C11.4409 6.61877 11.5 6.86546 11.5 7C11.5 7.4539 11.2301 7.69835 10.7773 7.92363C10.6657 7.97916 10.552 8.02883 10.4343 8.0797L10.4116 8.08953C10.3056 8.13534 10.1902 8.18521 10.088 8.23655C9.98257 8.28953 9.85193 8.36283 9.7433 8.46505C9.62799 8.57355 9.5 8.75189 9.5 9V9.99999C9.5 10.2761 9.72386 10.5 10 10.5C10.2761 10.5 10.5 10.2753 10.5 9.99918V9.1493C10.5111 9.14333 10.5234 9.13694 10.537 9.13009C10.6125 9.09217 10.703 9.05302 10.8197 9.00257L10.8313 8.99753C10.948 8.94704 11.0843 8.8878 11.2227 8.81894C11.7699 8.5467 12.5 8.0461 12.5 7C12.5 6.63454 12.3591 6.13123 11.9607 5.71623C11.5501 5.28858 10.9107 5 10 5C9.08926 5 8.44985 5.28858 8.03931 5.71623C7.64091 6.13123 7.5 6.63454 7.5 7C7.5 7.27614 7.72386 7.5 8 7.5C8.27614 7.5 8.5 7.27614 8.5 7C8.5 6.86546 8.55909 6.61877 8.76069 6.40877ZM10 13C10.4142 13 10.75 12.6642 10.75 12.25C10.75 11.8358 10.4142 11.5 10 11.5C9.58579 11.5 9.25 11.8358 9.25 12.25C9.25 12.6642 9.58579 13 10 13Z" fill="#212121"/>
</svg>

<svg xmlns="http://www.w3.org/2000/svg" width="20" height="20"><path d="M4 4v12a2 2 0 0 0 2 2h9.5a.5.5 0 0 0 0-1H6a1 1 0 0 1-1-1h10a1 1 0 0 0 1-1V4a2 2 0 0 0-2-2H6a2 2 0 0 0-2 2Zm10-1a1 1 0 0 1 1 1v11H5V4a1 1 0 0 1 1-1h8ZM8.76 6.409C8.95 6.21 9.31 6 10 6s1.05.211 1.24.409c.2.21.26.456.26.591 0 .454-.27.698-.723.924a6.995 6.995 0 0 1-.343.156l-.022.01a5.258 5.258 0 0 0-.324.147 1.455 1.455 0 0 0-.345.228A.731.731 0 0 0 9.5 9v1a.5.5 0 1 0 1 0v-.85l.037-.02c.075-.038.166-.077.283-.127l.011-.005c.117-.051.253-.11.392-.18C11.77 8.548 12.5 8.047 12.5 7c0-.365-.14-.869-.54-1.284C11.55 5.29 10.91 5 10 5c-.91 0-1.55.289-1.96.716-.4.415-.54.919-.54 1.284a.5.5 0 0 0 1 0c0-.135.06-.381.26-.591ZM10 13a.75.75 0 1 0 0-1.5.75.75 0 0 0 0 1.5Z"/></svg>
